X:125 
T:Last Night's Fun 1 (reel)  
T:Wexford Reel
B:CRE3.097 (SÃÂÃÂÃÂÃÂºgradh na hOiche ArÃÂÃÂÃÂÃÂ©ir 1)
F:file ID: cre.3/125wexford
N:This version isn't the Joe Cooley "session" version.
R:reel
Q:180
M:C
L:1/8
K:D
d3A BFAF|E2ge fdec|dcdA BFAF|GBEG FDDA|
d2dA BFAF|G2ge fdec|defd cdec|(3dcB AG FDD2:|
fdd2 defa|g3a bgeg|fdd2 defa|gbeg fdde|
fdd2 defa|g3a bgef|g2gf gbag|faeg fddc:|

%%%

